X: 43436
T: Y Polca Ffrengig
R: polka
M: 2/4
K: Gmajor
DE/F/ GG|F/G/A/F/ GA/B/|cc B/A/G|AG F/E/D|
DE/F/ GG|F/G/A/F/ GA/B/|cc/c/ B/A/G|AF G2:|
AB/c/ dd|cB AA/B/|cc B/A/G|AG F/E/D|
AB/c/ dd|cB AA/B/|cc/d/ B/A/G/|AF G2:|

